src/Pure/16/symbolic/actions/format-text-rich-symbolic.svg

<?xml version="1.0" encoding="UTF-8" standalone="no"?>
<svg
   height="16px"
   viewBox="0 0 16 16"
   width="16px"
   version="1.1"
   id="svg1"
   sodipodi:docname="format-text-rich-symbolic.svg"
   inkscape:version="1.4.2 (ebf0e940d0, 2025-05-08)"
   xmlns:inkscape="http://www.inkscape.org/namespaces/inkscape"
   xmlns:sodipodi="http://sodipodi.sourceforge.net/DTD/sodipodi-0.dtd"
   xmlns="http://www.w3.org/2000/svg"
   xmlns:svg="http://www.w3.org/2000/svg">
  <defs
      id="defs1">
      <style id="current-color-scheme" type="text/css">
          .ColorScheme-Text { color:#363636; }
      </style>
  </defs>
  <sodipodi:namedview
     id="namedview1"
     pagecolor="#ffffff"
     bordercolor="#000000"
     borderopacity="0.25"
     inkscape:showpageshadow="2"
     inkscape:pageopacity="0.0"
     inkscape:pagecheckerboard="0"
     inkscape:deskcolor="#d1d1d1"
     inkscape:zoom="49.6875"
     inkscape:cx="8"
     inkscape:cy="8"
     inkscape:window-width="1920"
     inkscape:window-height="1010"
     inkscape:window-x="0"
     inkscape:window-y="0"
     inkscape:window-maximized="1"
     inkscape:current-layer="svg1" />
  <path
     id="path1"
     style="fill:currentColor"
     class="ColorScheme-Text"
     d="M 6.5390625 1 L 3 13 L 2 13 L 2 14 L 6 14 L 6 13 L 5.0429688 13 L 5.9375 10 L 9.0625 10 L 9.953125 13 L 9 13 L 9 14 L 14 14 L 14 13 L 13.339844 13 L 9.5 1 L 6.5390625 1 z M 7.5 4.7890625 L 8.7617188 9 L 6.234375 9 L 7.5 4.7890625 z " />
</svg>

<svg height="16px" viewBox="0 0 16 16" width="16px" xmlns="http://www.w3.org/2000/svg">
    <path d="m 6.539062 1 l -3.539062 12 h -1 v 1 h 4 v -1 h -0.957031 l 0.894531 -3 h 3.125 l 0.890625 3 h -0.953125 v 1 h 5 v -1 h -0.660156 l -3.839844 -12 z m 0.960938 3.789062 l 1.261719 4.210938 h -2.527344 z m 0 0" fill="#363636"/>
</svg>
